X:103
M:6/8
L:1/8
Q:110
K:G
d|ded A2B|cdB A2G|GAG F2G|AFD G3||
d3A3|d3A3|d2e d2c|B2A G3||

